Newaita-dark/.DP/24/weather-storm.svg

<svg xmlns="http://www.w3.org/2000/svg" xmlns:xlink="http://www.w3.org/1999/xlink" width="24px" height="24px" viewBox="0 0 24 24" version="1.1">
<defs>
<linearGradient id="linear0" gradientUnits="userSpaceOnUse" x1="232.832993" y1="222.917007" x2="232.832993" y2="48.292" >
<stop offset="0" style="stop-color:rgb(100%,79.215688%,15.686275%);stop-opacity:1;"/>
<stop offset="1" style="stop-color:rgb(100%,83.529413%,30.980393%);stop-opacity:1;"/>
</linearGradient>
<linearGradient id="linear1" gradientUnits="userSpaceOnUse" x1="960" y1="1695.118042" x2="960" y2="815.117981" gradientTransform="matrix(0.012405,0,0,0.012405,0,-7.8255)">
<stop offset="0" style="stop-color:rgb(47.058824%,56.470591%,61.176473%);stop-opacity:1;"/>
<stop offset="1" style="stop-color:rgb(56.470591%,64.313728%,68.235296%);stop-opacity:1;"/>
</linearGradient>
<radialGradient id="radial0" gradientUnits="userSpaceOnUse" cx="450.908997" cy="189.578995" fx="450.908997" fy="189.578995" r="21.167" gradientTransform="matrix(0,-0.058605,-0.10548,0,30.662999,47.200499)">
<stop offset="0" style="stop-color:rgb(0%,0%,0%);stop-opacity:0.314;"/>
<stop offset="0.222" style="stop-color:rgb(0%,0%,0%);stop-opacity:0.275;"/>
<stop offset="1" style="stop-color:rgb(0%,0%,0%);stop-opacity:0;"/>
</radialGradient>
<radialGradient id="radial1" gradientUnits="userSpaceOnUse" cx="450.908997" cy="189.578995" fx="450.908997" fy="189.578995" r="21.167" gradientTransform="matrix(0,0.058605,0.10548,0,-8.8335,-6.1425)">
<stop offset="0" style="stop-color:rgb(0%,0%,0%);stop-opacity:0.314;"/>
<stop offset="0.222" style="stop-color:rgb(0%,0%,0%);stop-opacity:0.275;"/>
<stop offset="1" style="stop-color:rgb(0%,0%,0%);stop-opacity:0;"/>
</radialGradient>
<radialGradient id="radial2" gradientUnits="userSpaceOnUse" cx="450.908997" cy="189.578995" fx="450.908997" fy="189.578995" r="21.167" gradientTransform="matrix(0,-0.058605,0.10548,0,-8.8335,47.200499)">
<stop offset="0" style="stop-color:rgb(0%,0%,0%);stop-opacity:0.314;"/>
<stop offset="0.222" style="stop-color:rgb(0%,0%,0%);stop-opacity:0.275;"/>
<stop offset="1" style="stop-color:rgb(0%,0%,0%);stop-opacity:0;"/>
</radialGradient>
<radialGradient id="radial3" gradientUnits="userSpaceOnUse" cx="450.908997" cy="189.578995" fx="450.908997" fy="189.578995" r="21.167" gradientTransform="matrix(0,0.058605,-0.10548,0,30.662999,-6.1425)">
<stop offset="0" style="stop-color:rgb(0%,0%,0%);stop-opacity:0.314;"/>
<stop offset="0.222" style="stop-color:rgb(0%,0%,0%);stop-opacity:0.275;"/>
<stop offset="1" style="stop-color:rgb(0%,0%,0%);stop-opacity:0;"/>
</radialGradient>
</defs>
<g id="surface1">
<path style="fill-rule:nonzero;fill:url(#linear0);stroke-width:3;stroke-linecap:square;stroke-linejoin:round;stroke:rgb(12.941177%,12.941177%,12.941177%);stroke-opacity:1;stroke-miterlimit:4;" d="M 248.75 53.626673 C 245.333333 53.460007 242 55.126673 239.833333 58.126673 L 188.25 131.876673 C 186 134.960007 185.75 138.960007 187.333333 142.376673 C 188.833333 146.210007 192.75 148.876673 197.166667 148.876673 L 266.5 148.876673 L 226.666667 205.876673 C 223.25 210.710007 224.5 217.210007 229.25 220.626673 C 234 223.960007 240.666667 222.876673 244 217.960007 L 294.5 145.876673 C 296.5 143.960007 297.75 141.376673 297.75 138.376673 C 297.75 133.376673 294.25 129.210007 289.75 128.126673 C 288.333333 127.710007 287.166667 127.626673 285.833333 127.710007 L 217 127.710007 L 257.25 70.210007 C 260.666667 65.460007 259.333333 58.876673 254.666667 55.460007 C 252.833333 54.210007 250.833333 53.626673 248.75 53.626673 Z M 248.75 53.626673 " transform="matrix(0.046875,0,0,0.046875,0,10.08)"/>
<path style=" stroke:none;fill-rule:nonzero;fill:url(#linear1);" d="M 16.371094 2.285156 C 14.269531 2.277344 12.347656 3.492188 11.441406 5.394531 C 9.480469 4.863281 7.433594 5.910156 6.707031 7.808594 C 6.207031 7.441406 5.589844 7.246094 4.964844 7.246094 C 4.171875 7.242188 3.417969 7.558594 2.859375 8.113281 C 2.296875 8.671875 1.988281 9.433594 1.988281 10.222656 C 1.988281 11.074219 2.347656 11.886719 2.988281 12.457031 C 3.628906 13.019531 4.476562 13.285156 5.320312 13.175781 C 5.367188 13.195312 5.410156 13.199219 5.457031 13.199219 L 16.371094 13.199219 C 17.824219 13.199219 19.214844 12.628906 20.238281 11.605469 C 21.257812 10.582031 21.832031 9.1875 21.832031 7.738281 C 21.839844 6.292969 21.261719 4.902344 20.238281 3.878906 C 19.214844 2.855469 17.816406 2.277344 16.371094 2.285156 Z M 16.371094 2.285156 "/>
<path style=" stroke:none;fill-rule:nonzero;fill:rgb(100%,100%,100%);fill-opacity:0.392;" d="M 16.371094 2.285156 C 14.269531 2.277344 12.347656 3.492188 11.441406 5.394531 C 9.480469 4.863281 7.433594 5.910156 6.707031 7.808594 C 6.207031 7.441406 5.589844 7.246094 4.964844 7.246094 C 4.171875 7.242188 3.417969 7.558594 2.859375 8.113281 C 2.296875 8.671875 1.988281 9.433594 1.988281 10.222656 L 1.988281 10.347656 C 2.050781 8.746094 3.363281 7.488281 4.964844 7.496094 C 5.589844 7.496094 6.199219 7.691406 6.707031 8.058594 C 7.433594 6.160156 9.480469 5.113281 11.441406 5.644531 C 12.347656 3.738281 14.269531 2.527344 16.371094 2.53125 C 19.339844 2.527344 21.773438 4.898438 21.824219 7.871094 C 21.832031 7.828125 21.832031 7.785156 21.832031 7.738281 C 21.839844 6.292969 21.261719 4.902344 20.238281 3.878906 C 19.214844 2.855469 17.824219 2.277344 16.371094 2.285156 Z M 16.371094 2.285156 "/>
<path style=" stroke:none;fill-rule:nonzero;fill:rgb(0%,0%,0%);fill-opacity:0.235;" d="M 21.824219 7.628906 C 21.773438 10.597656 19.339844 12.980469 16.371094 12.972656 L 5.457031 12.972656 C 5.410156 12.972656 5.367188 12.964844 5.320312 12.957031 C 5.203125 12.964844 5.082031 12.972656 4.964844 12.972656 C 3.363281 12.980469 2.042969 11.714844 1.988281 10.113281 L 1.988281 10.222656 C 1.988281 11.074219 2.347656 11.886719 2.988281 12.457031 C 3.628906 13.019531 4.476562 13.285156 5.320312 13.175781 C 5.363281 13.195312 5.410156 13.199219 5.457031 13.199219 L 16.371094 13.199219 C 17.816406 13.199219 19.214844 12.628906 20.230469 11.605469 C 21.257812 10.582031 21.832031 9.1875 21.832031 7.738281 C 21.832031 7.707031 21.832031 7.667969 21.824219 7.628906 Z M 21.824219 7.628906 "/>
<path style="fill:none;stroke-width:0.09375;stroke-linecap:round;stroke-linejoin:miter;stroke:rgb(12.941177%,12.941177%,12.941177%);stroke-opacity:1;stroke-miterlimit:4;" d="M 10.914062 1.523438 C 9.513021 1.518229 8.231771 2.328125 7.627604 3.596354 C 6.320312 3.242188 4.955729 3.940104 4.471354 5.205729 C 4.138021 4.960938 3.726562 4.830729 3.309896 4.830729 C 2.78125 4.828125 2.278646 5.039062 1.90625 5.408854 C 1.53125 5.78125 1.325521 6.289062 1.325521 6.815104 C 1.325521 7.382812 1.565104 7.924479 1.992188 8.304688 C 2.419271 8.679688 2.984375 8.856771 3.546875 8.783854 C 3.578125 8.796875 3.606771 8.799479 3.638021 8.799479 L 10.914062 8.799479 C 11.882812 8.799479 12.809896 8.419271 13.492188 7.736979 C 14.171875 7.054688 14.554688 6.125 14.554688 5.158854 C 14.559896 4.195312 14.174479 3.268229 13.492188 2.585938 C 12.809896 1.903646 11.877604 1.518229 10.914062 1.523438 Z M 10.914062 1.523438 " transform="matrix(1.5,0,0,1.5,0,0)"/>
<path style=" stroke:none;fill-rule:nonzero;fill:url(#radial0);" d="M 10.917969 20.53125 L 12.902344 20.53125 L 12.902344 19.535156 L 10.917969 19.535156 Z M 10.917969 20.53125 "/>
<path style=" stroke:none;fill-rule:nonzero;fill:url(#radial1);" d="M 10.917969 20.53125 L 8.929688 20.53125 L 8.929688 21.519531 L 10.917969 21.519531 Z M 10.917969 20.53125 "/>
<path style=" stroke:none;fill-rule:nonzero;fill:url(#radial2);" d="M 10.917969 20.53125 L 8.929688 20.53125 L 8.929688 19.535156 L 10.917969 19.535156 Z M 10.917969 20.53125 "/>
<path style=" stroke:none;fill-rule:nonzero;fill:url(#radial3);" d="M 10.917969 20.53125 L 12.902344 20.53125 L 12.902344 21.519531 L 10.917969 21.519531 Z M 10.917969 20.53125 "/>
</g>
</svg>

<svg xmlns="http://www.w3.org/2000/svg" width="32" height="32" viewBox="0 0 24 24"><defs><linearGradient id="a" gradientUnits="userSpaceOnUse" x1="232.833" y1="222.917" x2="232.833" y2="48.292"><stop offset="0" stop-color="#ffca28"/><stop offset="1" stop-color="#ffd54f"/></linearGradient><linearGradient id="b" gradientUnits="userSpaceOnUse" x1="960" y1="1695.118" x2="960" y2="815.118" gradientTransform="matrix(.0124 0 0 .0124 0 -7.825)"><stop offset="0" stop-color="#78909c"/><stop offset="1" stop-color="#90a4ae"/></linearGradient><radialGradient id="c" gradientUnits="userSpaceOnUse" cx="450.909" cy="189.579" fx="450.909" fy="189.579" r="21.167" gradientTransform="matrix(0 -.0586 -.10548 0 30.664 47.2)"><stop offset="0" stop-opacity=".314"/><stop offset=".222" stop-opacity=".275"/><stop offset="1" stop-opacity="0"/></radialGradient><radialGradient id="d" gradientUnits="userSpaceOnUse" cx="450.909" cy="189.579" fx="450.909" fy="189.579" r="21.167" gradientTransform="matrix(0 .0586 .10548 0 -8.833 -6.142)"><stop offset="0" stop-opacity=".314"/><stop offset=".222" stop-opacity=".275"/><stop offset="1" stop-opacity="0"/></radialGradient><radialGradient id="e" gradientUnits="userSpaceOnUse" cx="450.909" cy="189.579" fx="450.909" fy="189.579" r="21.167" gradientTransform="matrix(0 -.0586 .10548 0 -8.833 47.2)"><stop offset="0" stop-opacity=".314"/><stop offset=".222" stop-opacity=".275"/><stop offset="1" stop-opacity="0"/></radialGradient><radialGradient id="f" gradientUnits="userSpaceOnUse" cx="450.909" cy="189.579" fx="450.909" fy="189.579" r="21.167" gradientTransform="matrix(0 .0586 -.10548 0 30.664 -6.142)"><stop offset="0" stop-opacity=".314"/><stop offset=".222" stop-opacity=".275"/><stop offset="1" stop-opacity="0"/></radialGradient></defs><path d="M248.726 53.558c-3.416 0-6.75 1.583-8.832 4.583l-51.662 73.66a10.607 10.607 0 0 0-.917 10.498c1.584 3.917 5.333 6.583 9.833 6.583h69.41l-39.913 56.994c-3.416 4.833-2.25 11.416 2.583 14.75 4.833 3.332 11.332 2.166 14.749-2.584l50.495-72.16c2-1.916 3.166-4.583 3.166-7.582 0-5-3.333-9.083-7.999-10.25-1.25-.333-2.5-.416-3.833-.333h-68.827l40.246-57.494c3.333-4.75 2.167-11.332-2.666-14.749-1.75-1.25-3.833-1.833-5.833-1.916zm0 0" transform="matrix(.04688 0 0 .04688 0 10.08)" fill="url(#a)" stroke-width="3" stroke-linecap="square" stroke-linejoin="round" stroke="#212121"/><path d="M16.371 2.285a5.442 5.442 0 0 0-4.93 3.11 3.994 3.994 0 0 0-1.023-.133 3.955 3.955 0 0 0-3.707 2.55 2.973 2.973 0 0 0-1.75-.566 2.97 2.97 0 0 0-2.977 2.977 2.97 2.97 0 0 0 2.977 2.976c.121 0 .242-.008.363-.02.043.012.086.02.133.02h10.918a5.445 5.445 0 0 0 5.457-5.457 5.448 5.448 0 0 0-5.46-5.457zm0 0" fill="url(#b)"/><path d="M16.371 2.285a5.442 5.442 0 0 0-4.93 3.11 3.994 3.994 0 0 0-1.023-.133 3.955 3.955 0 0 0-3.707 2.55 2.973 2.973 0 0 0-1.75-.566 2.97 2.97 0 0 0-2.973 3.102 2.968 2.968 0 0 1 2.973-2.852 2.97 2.97 0 0 1 1.75.563 3.957 3.957 0 0 1 3.707-2.547c.355 0 .7.043 1.023.129a5.445 5.445 0 0 1 4.93-3.106 5.444 5.444 0 0 1 5.457 5.332c0-.043.004-.082.004-.125a5.448 5.448 0 0 0-5.46-5.457zm0 0" fill="#fff" fill-opacity=".392"/><path d="M21.828 7.629a5.44 5.44 0 0 1-5.453 5.344H5.457a.496.496 0 0 1-.133-.02c-.12.012-.242.02-.363.02a2.968 2.968 0 0 1-2.973-2.864c-.004.04-.004.079-.004.114a2.97 2.97 0 0 0 2.977 2.976c.121 0 .242-.008.363-.02.043.012.086.02.133.02h10.918a5.445 5.445 0 0 0 5.457-5.457c0-.039-.004-.074-.004-.113zm0 0" fill-opacity=".235"/><path d="M16.371 2.285a5.442 5.442 0 0 0-4.93 3.11 3.994 3.994 0 0 0-1.023-.133 3.955 3.955 0 0 0-3.707 2.55 2.973 2.973 0 0 0-1.75-.566 2.97 2.97 0 0 0-2.977 2.977 2.97 2.97 0 0 0 2.977 2.976c.121 0 .242-.008.363-.02.043.012.086.02.133.02h10.918a5.445 5.445 0 0 0 5.457-5.457 5.448 5.448 0 0 0-5.46-5.457zm0 0" fill="none" stroke-width=".14064" stroke-linecap="round" stroke="#212121"/><path d="M10.914 20.531h1.984v-.996h-1.984zm0 0" fill="url(#c)"/><path d="M10.914 20.531H8.93v.992h1.984zm0 0" fill="url(#d)"/><path d="M10.914 20.531H8.93v-.996h1.984zm0 0" fill="url(#e)"/><path d="M10.914 20.531h1.984v.992h-1.984zm0 0" fill="url(#f)"/></svg>
